packages/core/assets/Icons/bluetooth_off.svg

<svg viewBox="0 0 20 20" fill="none" xmlns="http://www.w3.org/2000/svg">
<path d="M9.16683 12L5.91683 15.25C5.76405 15.4028 5.56961 15.4792 5.3335 15.4792C5.09739 15.4792 4.90294 15.4028 4.75016 15.25C4.59739 15.0972 4.521 14.9028 4.521 14.6667C4.521 14.4306 4.59739 14.2361 4.75016 14.0833L8.25016 10.5833L1.75016 4.08333C1.59738 3.93056 1.521 3.73611 1.521 3.5C1.521 3.26389 1.59738 3.06944 1.75016 2.91667C1.90294 2.76389 2.09739 2.6875 2.3335 2.6875C2.56961 2.6875 2.76405 2.76389 2.91683 2.91667L17.0835 17.0833C17.2363 17.2361 17.3127 17.4306 17.3127 17.6667C17.3127 17.9028 17.2363 18.0972 17.0835 18.25C16.9307 18.4028 16.7363 18.4792 16.5002 18.4792C16.2641 18.4792 16.0696 18.4028 15.9168 18.25L13.0002 15.3333L10.5835 17.75C10.5002 17.8333 10.4099 17.8958 10.3127 17.9375C10.2154 17.9792 10.1113 18 10.0002 18C9.77794 18 9.5835 17.9201 9.41683 17.7604C9.25016 17.6007 9.16683 17.3958 9.16683 17.1458V12ZM10.8335 15.125L11.7918 14.1667L10.8335 13.2083V15.125ZM11.7502 9.41667L10.5835 8.25L12.4168 6.41667L10.8335 4.875V8.5L9.16683 6.83333V2.85417C9.16683 2.60417 9.25016 2.39931 9.41683 2.23958C9.5835 2.07986 9.77794 2 10.0002 2C10.1113 2 10.2154 2.02083 10.3127 2.0625C10.4099 2.10417 10.5002 2.16667 10.5835 2.25L14.1668 5.83333C14.2502 5.91667 14.3092 6.00694 14.3439 6.10417C14.3786 6.20139 14.396 6.30556 14.396 6.41667C14.396 6.52778 14.3786 6.63194 14.3439 6.72917C14.3092 6.82639 14.2502 6.91667 14.1668 7L11.7502 9.41667Z" fill="currentColor"/>
</svg>

<svg xmlns="http://www.w3.org/2000/svg" width="20" height="20" fill="none" viewBox="0 0 20 20">
  <path fill="#201F1F" d="m9.167 12-3.25 3.25a.79.79 0 0 1-.583.23.79.79 0 0 1-.584-.23.79.79 0 0 1-.229-.583.79.79 0 0 1 .23-.584l3.5-3.5-6.5-6.5a.79.79 0 0 1-.23-.583.79.79 0 0 1 .23-.583.79.79 0 0 1 .583-.23.79.79 0 0 1 .583.23l14.166 14.166a.79.79 0 0 1 .23.584.79.79 0 0 1-.23.583.79.79 0 0 1-.583.23.79.79 0 0 1-.583-.23L13 15.333l-2.416 2.417a.866.866 0 0 1-.271.188.817.817 0 0 1-.896-.177.814.814 0 0 1-.25-.615V12Zm1.667 3.125.958-.958-.958-.959v1.917Zm.916-5.708L10.584 8.25l1.833-1.833-1.583-1.542V8.5L9.167 6.833V2.854a.81.81 0 0 1 .25-.614.817.817 0 0 1 1.167.01l3.583 3.583a.73.73 0 0 1 .177.271.923.923 0 0 1 .052.313.923.923 0 0 1-.052.312.73.73 0 0 1-.177.271L11.75 9.417Z"/>
</svg>
